src/assets/icons/pdfFileIcon.svg

<svg width="30" height="40" viewBox="0 0 30 40" fill="none" xmlns="http://www.w3.org/2000/svg">
<path d="M0.5 36V4C0.5 2.067 2.067 0.5 4 0.5H17.9C18.7987 0.5 19.663 0.845712 20.3138 1.46552L28.4138 9.1798C29.1074 9.8404 29.5 10.7564 29.5 11.7143V36C29.5 37.933 27.933 39.5 26 39.5H4C2.067 39.5 0.5 37.933 0.5 36Z" fill="white" stroke="#E5E9EB"/>
<path d="M5.77156 24V16.7273H8.77582C9.32033 16.7273 9.79026 16.8338 10.1856 17.0469C10.5833 17.2576 10.8899 17.5523 11.1054 17.9311C11.3208 18.3075 11.4285 18.7455 11.4285 19.245C11.4285 19.7469 11.3184 20.1861 11.0983 20.5625C10.8805 20.9366 10.5691 21.2266 10.1643 21.4325C9.75949 21.6385 9.2789 21.7415 8.72255 21.7415H6.86886V20.3565H8.39585C8.661 20.3565 8.88235 20.3104 9.05991 20.218C9.23984 20.1257 9.37596 19.9967 9.46829 19.831C9.56062 19.6629 9.60679 19.4676 9.60679 19.245C9.60679 19.0201 9.56062 18.826 9.46829 18.6626C9.37596 18.4969 9.23984 18.3691 9.05991 18.2791C8.87999 18.1892 8.65863 18.1442 8.39585 18.1442H7.52937V24H5.77156ZM14.9232 24H12.235V16.7273H14.9197C15.6607 16.7273 16.2987 16.8729 16.8337 17.1641C17.3711 17.4529 17.7854 17.8696 18.0766 18.4141C18.3678 18.9562 18.5134 19.6049 18.5134 20.3601C18.5134 21.1177 18.3678 21.7687 18.0766 22.3132C17.7878 22.8577 17.3747 23.2756 16.8373 23.5668C16.2999 23.8556 15.6618 24 14.9232 24ZM13.9928 22.5014H14.8557C15.2629 22.5014 15.6074 22.4328 15.8891 22.2955C16.1732 22.1558 16.3875 21.9297 16.5319 21.6172C16.6787 21.3023 16.752 20.8833 16.752 20.3601C16.752 19.8369 16.6787 19.4202 16.5319 19.1101C16.3851 18.7976 16.1685 18.5727 15.882 18.4354C15.5979 18.2957 15.2475 18.2259 14.8309 18.2259H13.9928V22.5014ZM19.4797 24V16.7273H24.4442V18.1548H21.2375V19.6463H24.1281V21.0774H21.2375V24H19.4797Z" fill="#F76659"/>
</svg>

<svg width="30" height="40" fill="none" xmlns="http://www.w3.org/2000/svg"><path d="M.5 36V4A3.5 3.5 0 0 1 4 .5h13.9a3.5 3.5 0 0 1 2.414.966l8.1 7.714a3.5 3.5 0 0 1 1.086 2.534V36a3.5 3.5 0 0 1-3.5 3.5H4A3.5 3.5 0 0 1 .5 36z" fill="#fff" stroke="#E5E9EB"/><path d="M5.772 24v-7.273h3.004c.544 0 1.014.107 1.41.32.397.21.704.505.92.884.215.377.322.814.322 1.314 0 .502-.11.941-.33 1.317-.218.375-.529.665-.934.87-.405.207-.885.31-1.441.31H6.869v-1.386h1.527c.265 0 .486-.046.664-.138a.95.95 0 0 0 .408-.387c.093-.168.139-.363.139-.586 0-.225-.046-.419-.139-.582a.93.93 0 0 0-.408-.384 1.476 1.476 0 0 0-.664-.135h-.867V24H5.772zm9.151 0h-2.688v-7.273h2.685c.74 0 1.379.146 1.914.437.537.289.951.706 1.243 1.25.29.542.436 1.19.436 1.946 0 .758-.145 1.409-.436 1.953a2.985 2.985 0 0 1-1.24 1.254c-.537.289-1.175.433-1.914.433zm-.93-1.499h.863c.407 0 .751-.068 1.033-.206.284-.14.498-.365.643-.678.147-.315.22-.734.22-1.257 0-.523-.073-.94-.22-1.25a1.358 1.358 0 0 0-.65-.675c-.284-.14-.634-.21-1.051-.21h-.838v4.276zM19.48 24v-7.273h4.964v1.428h-3.206v1.491h2.89v1.431h-2.89V24H19.48z" fill="#F76659"/></svg>
